!!!OTL: Die verkaufte Muellerin Es wollt ein Mueller frueh aufstehn,
!!!ARE: Europa, Mitteleuropa, Deutschland (), Sachsen
!!!YOR: 4, S. 344
!!    ????
!!!SCT: Q0086S
!!!YEM: Copyright 1995, estate of Helmut Schaffrath.
**kern
*ICvox
*Ivox
!! Mixed meters:  3/4; 2/4
*M3/4
*k[f#]
*G:
{8g
=1
8g
8b
4dd
4dd
=2
8ee
8ee
4ee
8r}
{8cc
=3
8cc
8ee
4gg
8ff#
8ee
=4
8ee
8dd
4dd
8r}
{16dd
16dd
=5
*M2/4
8gg
8dd
8b
8ee
=6
4dd
4ff#
=7
4gg
8r}
{16dd
16dd
=8
8gg
8dd
8b
8ee
=9
4dd
4ff#
=10
4gg
8r}
==
!!!AGN: Ballade, Menschenhandel, Rettung, Hinrichtung
!! Takt in Taktwechsel geaendert.
!!!ONB: ESAC (Essen Associative Code) Database: BALLADE
!!!AMT: irregular
!!!AIN: vox
!!!EED: Helmut Schaffrath
!!!EEV: 1.0
*-
